X: 1
T:Polska fr Boda
R:Polska
O:Sweden
M:3/4
A:Dalarna
K:A
E|\
A>(A A)>B c>d|e>(e e)>d c>e|\
a2a2 A>c|e2e3 d|\
c>B A>B c>d|e>(e e/)f/e/d/ c>e|
a2a2 A>c|e2 e3e|:\
f>e f2 d>e|f2 d3f|a>(e e/)f/e/c/ A>c|e2 e3e|
f>e d>c (B2|B/)c/B/A/ B>c d>e|\
f>(e e/)f/e/c/ d>B|(3EGB A4:|
